brandFactory_export/1.Light/Puzzle _1Light.svg

<?xml version="1.0" encoding="UTF-8"?>
<svg width="24px" height="24px" viewBox="0 0 24 24" version="1.1" xmlns="http://www.w3.org/2000/svg" xmlns:xlink="http://www.w3.org/1999/xlink">
    <title>1.Light/Puzzle _1Light</title>
    <g id="Symbols" stroke="none" stroke-width="1" fill="none" fill-rule="evenodd">
        <g id="1.Light/Puzzle-_1Light" fill="#5CB615" fill-rule="nonzero">
            <path d="M1.01845132,19.1445378 L1.01845132,22.0823529 C1.01845132,22.3747899 1.25042017,22.6134454 1.53613445,22.6134454 L16.9277311,22.6134454 C17.2134454,22.6067227 17.4420168,22.3680672 17.4352941,22.0823529 L17.4352941,18.4016807 C17.4352941,18.2336134 17.512605,18.0789916 17.6470588,17.9815126 C17.7781513,17.8840336 17.9495798,17.8571429 18.1042017,17.9142857 C18.5445378,18.0689076 18.9613445,18.102521 19.2336134,18.112605 C19.3142857,18.112605 19.4184874,18.112605 19.502521,18.1058824 C20.2621849,18.092437 22.605042,17.8268908 22.605042,14.8184874 C22.605042,11.9243697 20.4672269,11.5445378 19.5361345,11.5142857 L19.1966387,11.5142857 C19.0319328,11.5142857 18.5915966,11.5310924 18.097479,11.6957983 C17.9428571,11.7462185 17.7747899,11.7159664 17.6436975,11.6184874 C17.512605,11.5176471 17.4352941,11.3630252 17.4386555,11.1983193 L17.4386555,7.90420168 C17.4453782,7.61848739 17.2168067,7.37983193 16.9310924,7.37310924 L12.7394958,7.37310924 C12.5781513,7.37310924 12.4268908,7.29243697 12.3327731,7.16134454 C12.2386555,7.02689076 12.2084034,6.85546218 12.2588235,6.69747899 C12.3831933,6.29411765 12.4436975,5.86386555 12.4436975,5.37647059 C12.4436975,2.46890756 10.292437,2.09579832 9.36806723,2.07226891 L9.03529412,2.07226891 C8.13109244,2.08571429 6.01344538,2.42857143 6.01344538,5.35630252 C6.01344538,5.84705882 6.07731092,6.30084034 6.19831933,6.69747899 C6.2487395,6.85546218 6.21848739,7.02689076 6.12436975,7.16134454 C6.0302521,7.29243697 5.8789916,7.37310924 5.71764706,7.37310924 L1.53613445,7.37310924 C1.24705882,7.37647059 1.01512605,7.61512605 1.01845132,7.90420168 L1.01845132,10.4756303 L1.28067227,10.4756303 C1.62689076,10.4890756 2.11764706,10.5361345 2.66554622,10.7277311 C3.65714286,11.0436975 5.3512605,11.9983193 5.3512605,14.8151261 C5.3512605,17.6285714 3.6605042,18.5865546 2.6487395,18.9092437 C2.21176471,19.0571429 1.7512605,19.1310924 1.28739496,19.1344538 C1.2,19.1445378 1.1092437,19.1478992 1.01845132,19.1445378 M16.9310924,23.6521008 L1.53613445,23.6521008 C0.692436975,23.6521008 0.00672268908,22.9462185 0.00672268908,22.0823529 L0.00672268908,18.5932773 C0.00672268908,18.4453782 0.0705882353,18.3042017 0.178151261,18.2067227 C0.285714286,18.1092437 0.430252101,18.0621849 0.574789916,18.0789916 C0.732773109,18.0991597 0.870588235,18.1092437 0.964705882,18.1092437 C1.05210084,18.1092437 1.15294118,18.1092437 1.24033613,18.0991597 C1.44537815,18.0957983 1.86554622,18.0789916 2.34285714,17.9176471 C3.67058824,17.4941176 4.3394958,16.4487395 4.3394958,14.8117647 C4.3394958,13.1680672 3.67058824,12.1260504 2.34957983,11.7092437 C1.85882353,11.5344538 1.41848739,11.5142857 1.25378151,11.507563 L0.921008403,11.507563 C0.840336134,11.5109244 0.715966387,11.5176471 0.568067227,11.5310924 C0.423529412,11.5445378 0.282352941,11.497479 0.178151261,11.4 C0.0705882353,11.2991597 0.0100840336,11.1613445 0.0100840336,11.0134454 L0.0100840336,7.89747899 C0.0100840336,7.03361345 0.695798319,6.32773109 1.5394958,6.32773109 L5.08235294,6.32773109 C5.03193277,6.00168067 5.00504202,5.67563025 5.00504202,5.34621849 C5.00504202,2.20336134 7.08571429,1.05042017 9.03193277,1.02689076 L9.38487395,1.02689076 C11.3579832,1.08067227 13.4554622,2.25042017 13.4554622,5.3697479 C13.4554622,5.70588235 13.4285714,6.02521008 13.3815126,6.32773109 L16.9310924,6.32773109 C17.7680672,6.32773109 18.4504202,7.0302521 18.4504202,7.89747899 L18.4504202,10.5327731 C18.7697479,10.4789916 19.0352941,10.4655462 19.1966387,10.4655462 L19.5563025,10.4655462 C21.5159664,10.5226891 23.6134454,11.692437 23.6134454,14.8084034 C23.6134454,17.9546218 21.4285714,19.1042017 19.5596639,19.1310924 C19.4890756,19.1411765 19.3546218,19.1411765 19.2168067,19.1411765 C18.9613445,19.1344538 18.702521,19.107563 18.4504202,19.0638655 L18.4504202,22.0789916 C18.4504202,22.9495798 17.7680672,23.6521008 16.9310924,23.6521008" id="Puzzle-_1Light"></path>
        </g>
    </g>
</svg>

<svg width="24" height="24" viewBox="0 0 24 24" xmlns="http://www.w3.org/2000/svg"><path d="M1.018 19.145v2.937c0 .293.232.531.518.531h15.392a.52.52 0 00.507-.53v-3.681c0-.168.078-.323.212-.42a.484.484 0 01.457-.068c.44.155.857.189 1.13.199.08 0 .184 0 .269-.007.76-.014 3.102-.28 3.102-3.288 0-2.894-2.138-3.273-3.069-3.304h-.34a3.61 3.61 0 00-1.099.182.5.5 0 01-.453-.078.517.517 0 01-.205-.42V7.904a.52.52 0 00-.508-.53H12.74a.503.503 0 01-.406-.213.53.53 0 01-.074-.464c.124-.403.185-.833.185-1.32 0-2.908-2.152-3.281-3.076-3.305h-.333c-.904.014-3.022.357-3.022 3.284 0 .491.064.945.185 1.341a.53.53 0 01-.074.464.503.503 0 01-.406.212H1.536a.525.525 0 00-.518.531v2.572h.263c.346.013.837.06 1.385.252.991.316 2.685 1.27 2.685 4.087 0 2.814-1.69 3.772-2.702 4.094a4.345 4.345 0 01-1.362.225c-.087.01-.178.014-.269.01m15.913 4.508H1.536c-.844 0-1.53-.706-1.53-1.57v-3.489c0-.148.065-.289.172-.386a.504.504 0 01.397-.128c.158.02.296.03.39.03.087 0 .188 0 .275-.01.205-.003.626-.02 1.103-.181 1.328-.424 1.996-1.47 1.996-3.106 0-1.644-.668-2.686-1.99-3.103a3.699 3.699 0 00-1.095-.201H.92c-.08.003-.205.01-.353.023a.5.5 0 01-.39-.131.526.526 0 01-.168-.387V7.897c0-.863.686-1.57 1.53-1.57h3.542a6.404 6.404 0 01-.077-.98c0-3.144 2.08-4.297 4.027-4.32h.353c1.973.054 4.07 1.223 4.07 4.343 0 .336-.026.655-.073.958h3.55c.836 0 1.518.702 1.518 1.57v2.635c.32-.054.585-.067.747-.067h.36c1.959.057 4.056 1.226 4.056 4.342 0 3.147-2.184 4.296-4.053 4.323-.07.01-.205.01-.343.01a5.334 5.334 0 01-.767-.077v3.015c0 .87-.682 1.573-1.519 1.573" fill="#5CB615" fill-rule="nonzero"/></svg>
